!!!OTL: Winterleid oder Mass in allen Dingen.
!!!ARE: Europa, Mitteleuropa, Deutschland
!!!SCT: A0152
!!!TXL:@@DE
!!!YEM: Copyright 1995, estate of Helmut Schaffrath.
**kern	**text
!! Mixed meters:  4/2; 6/2
*M4/2	*
*met(c|)	*
*clefC4	*
*k[b-]	*
*g:dor	*
=1	=1
!LO:TX:a:t=dor. tr.	!
2ryy	.
{2G	I._Ach
2G	ſor_ge,
2G	du
=2	=2
1B-	mußt
1A	ʒu
=3	=3
*M6/2	*
2G	ru-
2F#i	-cke
1G	ſtan,
2r}	.
{2B-	du
=4	=4
*M4/2	*
2A/	biſt
2G	ʒu
2F	frů
2F	ge-
=5	=5
1G	-kom-
1A}	-men,
=6	=6
{2r	.
2G	der
2F	winter
2E	.
=7	=7
1D	hat
1A	mir
=8	=8
*M6/2	*
2B-	leids
2c	ge-
1d	-tan,
2r}	.
{2d	das
=9	=9
*M4/2	*
2d	will
2d	ich
2c	kla_gen
2B-	dem
=10	=10
1A	ſom-
1G}	-mer.
==	==
!!!GTL: Liebeslieder
!!!AGN: Romanze, Ballade, Lied
!! Souterliedekens 1540 ad Ps. 25.
!!!ONB: ESAC (Essen Associative Code) Database: ALTDEU
!!!AMT: irregular
!!!AIN: vox
!!!EED: Helmut Schaffrath
!!!EEV: 1.0
!!!RDF**kern: i = editorial accidental
!!!AMD: Dorian
!!!URL-scan: https://rosdok.uni-rostock.de/mcrviewer/recordIdentifier/rosdok_ppn738218359/iview2/phys_0321.iview2?x=-2231.2783251231526&y=-1844.7241379551124&scale=0.2314709236031927&rotation=0&layout=singlePageLayout&logicalDiv=log_0009
!!!ENC: Anna Maria Matuszewska
!!!EEV: 2024/26/02
*-	*-
